svg/city.svg

<svg xmlns="http://www.w3.org/2000/svg" viewBox="0 0 24 24"><path d="M19 15h-2v-2h2m0 6h-2v-2h2M13 7h-2V5h2m0 6h-2V9h2m0 6h-2v-2h2m0 6h-2v-2h2m-6-6H5V9h2m0 6H5v-2h2m0 6H5v-2h2m8-6V5l-3-3-3 3v2H3v14h18V11z"/></svg>

<?xml version="1.0" encoding="UTF-8"?><!DOCTYPE svg PUBLIC "-//W3C//DTD SVG 1.1//EN" "http://www.w3.org/Graphics/SVG/1.1/DTD/svg11.dtd"><svg xmlns="http://www.w3.org/2000/svg" xmlns:xlink="http://www.w3.org/1999/xlink" version="1.1" id="mdi-city" width="24" height="24" viewBox="0 0 24 24"><path d="M19,15H17V13H19M19,19H17V17H19M13,7H11V5H13M13,11H11V9H13M13,15H11V13H13M13,19H11V17H13M7,11H5V9H7M7,15H5V13H7M7,19H5V17H7M15,11V5L12,2L9,5V7H3V21H21V11H15Z" /></svg>
